static/images/icon_title_goal.svg

<svg fill="none" height="43" viewBox="0 0 77 43" width="77" xmlns="http://www.w3.org/2000/svg" xmlns:xlink="http://www.w3.org/1999/xlink"><clipPath id="a"><path d="m18.8281 2h39v39h-39z"/></clipPath><g clip-path="url(#a)"><path d="m56.2031 19.875h-1.7079c-.3795-3.7275-2.0335-7.2098-4.6829-9.8592-2.6493-2.64933-6.1317-4.30339-9.8592-4.68292v-1.70788c0-.43098-.1712-.8443-.4759-1.14905-.3048-.30475-.7181-.47595-1.1491-.47595s-.8443.1712-1.149.47595c-.3048.30475-.476.71807-.476 1.14905v1.70788c-3.7275.37953-7.2098 2.03359-9.8592 4.68292-2.6493 2.6494-4.3034 6.1317-4.6829 9.8592h-1.7079c-.431 0-.8443.1712-1.149.476-.3048.3047-.476.718-.476 1.149s.1712.8443.476 1.149c.3047.3048.718.476 1.149.476h1.7079c.3795 3.7275 2.0336 7.2098 4.6829 9.8592 2.6494 2.6493 6.1317 4.3034 9.8592 4.6829v1.7079c0 .431.1712.8443.476 1.149.3047.3048.718.476 1.149.476s.8443-.1712 1.1491-.476c.3047-.3047.4759-.718.4759-1.149v-1.7079c3.7275-.3795 7.2099-2.0336 9.8592-4.6829 2.6494-2.6494 4.3034-6.1317 4.6829-9.8592h1.7079c.431 0 .8443-.1712 1.1491-.476.3047-.3047.4759-.718.4759-1.149s-.1712-.8443-.4759-1.149c-.3048-.3048-.7181-.476-1.1491-.476zm-16.25 14.5129v-1.5129c0-.431-.1712-.8443-.4759-1.149-.3048-.3048-.7181-.476-1.1491-.476s-.8443.1712-1.149.476c-.3048.3047-.476.718-.476 1.149v1.5129c-2.8597-.3646-5.5174-1.6685-7.5559-3.707s-3.3424-4.6962-3.707-7.5559h1.5129c.431 0 .8443-.1712 1.1491-.476.3047-.3047.4759-.718.4759-1.149s-.1712-.8443-.4759-1.149c-.3048-.3048-.7181-.476-1.1491-.476h-1.5129c.3646-2.8597 1.6685-5.5174 3.707-7.5559s4.6962-3.3424 7.5559-3.70698v1.51288c0 .431.1712.8443.476 1.149.3047.3048.718.476 1.149.476s.8443-.1712 1.1491-.476c.3047-.3047.4759-.718.4759-1.149v-1.51288c2.8598.36458 5.5175 1.66848 7.556 3.70698s3.3423 4.6962 3.7069 7.5559h-1.5129c-.431 0-.8443.1712-1.149.476-.3048.3047-.476.718-.476 1.149s.1712.8443.476 1.149c.3047.3048.718.476 1.149.476h1.5129c-.3646 2.8597-1.6684 5.5174-3.7069 7.5559s-4.6962 3.3424-7.556 3.707z" fill="#232323"/><path d="m38.3281 16.625c-.9642 0-1.9067.2859-2.7084.8216s-1.4265 1.297-1.7955 2.1878-.4655 1.871-.2774 2.8167c.1881.9456.6524 1.8143 1.3342 2.496.6818.6818 1.5504 1.1461 2.4961 1.3342.9456.1881 1.9258.0916 2.8166-.2774s1.6522-.9938 2.1878-1.7955c.5357-.8017.8216-1.7442.8216-2.7084 0-1.2929-.5136-2.5329-1.4278-3.4471-.9143-.9143-2.1542-1.4279-3.4472-1.4279zm0 6.5c-.3214 0-.6355-.0953-.9028-.2739-.2672-.1785-.4755-.4323-.5985-.7292-.123-.297-.1551-.6237-.0924-.9389s.2174-.6048.4447-.832c.2272-.2273.5168-.3821.832-.4448s.642-.0305.9389.0925.5507.3313.7293.5985c.1785.2672.2738.5814.2738.9028 0 .431-.1712.8443-.4759 1.149-.3048.3048-.7181.476-1.1491.476z" fill="#f7931e"/></g></svg>

<svg width="77" height="43" viewBox="0 0 77 43" fill="none" xmlns="http://www.w3.org/2000/svg">
<g clip-path="url(#clip0_5367_1259)">
<path d="M56.2031 19.875H54.4952C54.1157 16.1475 52.4617 12.6652 49.8123 10.0158C47.163 7.36647 43.6806 5.71241 39.9531 5.33288V3.625C39.9531 3.19402 39.7819 2.7807 39.4772 2.47595C39.1724 2.1712 38.7591 2 38.3281 2C37.8971 2 37.4838 2.1712 37.1791 2.47595C36.8743 2.7807 36.7031 3.19402 36.7031 3.625V5.33288C32.9756 5.71241 29.4933 7.36647 26.8439 10.0158C24.1946 12.6652 22.5405 16.1475 22.161 19.875H20.4531C20.0221 19.875 19.6088 20.0462 19.3041 20.351C18.9993 20.6557 18.8281 21.069 18.8281 21.5C18.8281 21.931 18.9993 22.3443 19.3041 22.649C19.6088 22.9538 20.0221 23.125 20.4531 23.125H22.161C22.5405 26.8525 24.1946 30.3348 26.8439 32.9842C29.4933 35.6335 32.9756 37.2876 36.7031 37.6671V39.375C36.7031 39.806 36.8743 40.2193 37.1791 40.524C37.4838 40.8288 37.8971 41 38.3281 41C38.7591 41 39.1724 40.8288 39.4772 40.524C39.7819 40.2193 39.9531 39.806 39.9531 39.375V37.6671C43.6806 37.2876 47.163 35.6335 49.8123 32.9842C52.4617 30.3348 54.1157 26.8525 54.4952 23.125H56.2031C56.6341 23.125 57.0474 22.9538 57.3522 22.649C57.6569 22.3443 57.8281 21.931 57.8281 21.5C57.8281 21.069 57.6569 20.6557 57.3522 20.351C57.0474 20.0462 56.6341 19.875 56.2031 19.875ZM39.9531 34.3879V32.875C39.9531 32.444 39.7819 32.0307 39.4772 31.726C39.1724 31.4212 38.7591 31.25 38.3281 31.25C37.8971 31.25 37.4838 31.4212 37.1791 31.726C36.8743 32.0307 36.7031 32.444 36.7031 32.875V34.3879C33.8434 34.0233 31.1857 32.7194 29.1472 30.6809C27.1087 28.6424 25.8048 25.9847 25.4402 23.125H26.9531C27.3841 23.125 27.7974 22.9538 28.1022 22.649C28.4069 22.3443 28.5781 21.931 28.5781 21.5C28.5781 21.069 28.4069 20.6557 28.1022 20.351C27.7974 20.0462 27.3841 19.875 26.9531 19.875H25.4402C25.8048 17.0153 27.1087 14.3576 29.1472 12.3191C31.1857 10.2806 33.8434 8.9767 36.7031 8.61212V10.125C36.7031 10.556 36.8743 10.9693 37.1791 11.274C37.4838 11.5788 37.8971 11.75 38.3281 11.75C38.7591 11.75 39.1724 11.5788 39.4772 11.274C39.7819 10.9693 39.9531 10.556 39.9531 10.125V8.61212C42.8129 8.9767 45.4706 10.2806 47.5091 12.3191C49.5476 14.3576 50.8514 17.0153 51.216 19.875H49.7031C49.2721 19.875 48.8588 20.0462 48.5541 20.351C48.2493 20.6557 48.0781 21.069 48.0781 21.5C48.0781 21.931 48.2493 22.3443 48.5541 22.649C48.8588 22.9538 49.2721 23.125 49.7031 23.125H51.216C50.8514 25.9847 49.5476 28.6424 47.5091 30.6809C45.4706 32.7194 42.8129 34.0233 39.9531 34.3879Z" fill="#232323"/>
<path d="M38.3281 16.625C37.3639 16.625 36.4214 16.9109 35.6197 17.4466C34.818 17.9823 34.1932 18.7436 33.8242 19.6344C33.4552 20.5252 33.3587 21.5054 33.5468 22.4511C33.7349 23.3967 34.1992 24.2654 34.881 24.9471C35.5628 25.6289 36.4314 26.0932 37.3771 26.2813C38.3227 26.4694 39.3029 26.3729 40.1937 26.0039C41.0845 25.6349 41.8459 25.0101 42.3815 24.2084C42.9172 23.4067 43.2031 22.4642 43.2031 21.5C43.2031 20.2071 42.6895 18.9671 41.7753 18.0529C40.861 17.1386 39.6211 16.625 38.3281 16.625ZM38.3281 23.125C38.0067 23.125 37.6926 23.0297 37.4253 22.8511C37.1581 22.6726 36.9498 22.4188 36.8268 22.1219C36.7038 21.8249 36.6717 21.4982 36.7344 21.183C36.7971 20.8678 36.9518 20.5782 37.1791 20.351C37.4063 20.1237 37.6959 19.9689 38.0111 19.9062C38.3263 19.8435 38.6531 19.8757 38.95 19.9987C39.2469 20.1217 39.5007 20.33 39.6793 20.5972C39.8578 20.8644 39.9531 21.1786 39.9531 21.5C39.9531 21.931 39.7819 22.3443 39.4772 22.649C39.1724 22.9538 38.7591 23.125 38.3281 23.125Z" fill="#F7931E"/>
</g>
<defs>
<clipPath id="clip0_5367_1259">
<rect width="39" height="39" fill="white" transform="translate(18.8281 2)"/>
</clipPath>
</defs>
</svg>
